!!!COM: Bach, Johann Sebastian
!!!OPR: Inventio
!!!OTL: Inventio 8
!!!XEN: Two-part Inventions [for keyboard]
!!!ONM: No. 8
!!!ONB: In F major.
!!!SCT: BWV 779
!!!YEC: Copyright 1994, David Huron
!!!YEM: Rights to all derivative electronic formats reserved.
!! Performance duration: 0:52; performance tempo: 117.7 quarter-notes per minute
!! (Andras Schiff, piano, "Two-Part Inventions BWV 772a-786; Three-part
!! Inventions BWV 787-801" Decca 411 974-2)
**kern	**kern
*staff2	*staff1
*clefF4	*clefG2
*k[b-]	*k[b-]
*F:	*F:
*M3/4	*M3/4
*MM117.7	*MM117.7
=1-	=1-
2.r	8r
.	8f
.	8a
.	8f
.	8cc
.	8f
=2	=2
8r	8ff
8F	16ee
.	16dd
8A	16cc
.	16dd
8F	16cc
.	16b-
8c	16a
.	16b-
8F	16a
.	16g
=3	=3
8f	8f
16e	8a
16d	.
16c	8cc
16d	.
16c	8a
16B-	.
16A	8ff
16B-	.
16A	8cc
16G	.
=4	=4
8F	16aa
.	16ccc
8A	16bb-
.	16ccc
8c	16aa
.	16ccc
8A	16bb-
.	16ccc
8f	16aa
.	16ccc
8c	16bb-
.	16ccc
=5	=5
16a	16ff
16cc	16aa
16b-	16gg
16cc	16aa
16a	16ff
16cc	16aa
16b-	16gg
16cc	16aa
16a	16ff
16cc	16aa
16b-	16gg
16cc	16aa
=6	=6
16f	16dd
16a	16ff
16g	16ee
16a	16ff
16f	16dd
16a	16ff
16g	16ee
16a	16ff
16f	16dd
16a	16ff
16g	16ee
16a	16ff
=7	=7
16d	8bn
16f	.
16e	8g
16f	.
16d	8dd
16f	.
16e	8b
16f	.
16d	8ff
16f	.
16e	8dd
16f	.
=8	=8
8Bn	16gg
.	16aa
8G	16gg
.	16ff
8c	16ee
.	16ff
8G	16ee
.	16dd
8e	16cc
.	16dd
8c	16cc
.	16b-
=9	=9
16f	8a
16g	.
16f	16dd
16e	16cc
16d	16bn
16e	16cc
16d	16b
16c	16a
16Bn	16g
16c	16a
16B	16g
16A	16f
=10	=10
8G	16e
.	16f
16c	16e
16Bn	16d
16A	8c
16B	.
16A	16cc
16G	16bn
16F	8cc
16G	.
16F	8e
16E	.
=11	=11
16D	8f
16E	.
16D	8cc
16C	.
16G	8e
16F	.
16E	8cc
16F	.
8G	8d
8GG	8bn
=12	=12
8r	4cc
8C	.
8E	4r
8C	.
8G	4r
8C	.
=13	=13
8c	8r
16Bn	8cc
16A	.
16G	8ee
16A	.
16G	8cc
16F	.
16E	8gg
16F	.
16E	8cc
16D	.
=14	=14
8C	8ccc
8E	16bbn
.	16aa
8G	16gg
.	16aa
8E	16gg
.	16ff
8c	16ee
.	16ff
8G	16ee
.	16dd
=15	=15
8e-	16cc
.	16b-
8F#	16cc
.	16aa
8e-	16cc
.	16aa
8F#	16b-
.	16aa
8e-	16cc
.	16aa
8F#	16a
.	16aa
=16	=16
8G	8b-
16Fn	8g
16E-	.
16D	8b-
16E-	.
16D	8g
16C	.
16BB-	8dd
16C	.
16BB-	8g
16AA	.
=17	=17
8GG	8gg
8G	16ff
.	16ee-
8B-	16dd
.	16ee-
8G	16dd
.	16cc
8d	16b-
.	16cc
8G	16b-
.	16a
=18	=18
8g	8g
16f	8b-
16e-	.
16d	8dd
16e-	.
16d	8b-
16c	.
16B-	8gg
16c	.
16B-	8dd
16A	.
=19	=19
16G	8bb-
16F	.
16G	8cc#
16en	.
16G	8bb-
16e	.
16F	8cc#
16e	.
16G	8bb-
16e	.
16E	8cc#
16e	.
=20	=20
16F	8dd
16E	.
16F	8a
16d	.
16F	8ff
16d	.
16E	8dd
16d	.
16F	8aa
16d	.
16D	8ff
16d	.
=21	=21
8B-	16gg
.	16ff
8G	16gg
.	16bb-
8E	16cc
.	16bb-
8G	16dd
.	16bb-
8C	16ee
.	16bb-
8E	16cc
.	16bb-
=22	=22
8A	16ff
.	16ee
8F	16ff
.	16aa
8D	16bn
.	16aa
8F	16cc#
.	16aa
8BBn	16dd
.	16aa
8D	16b
.	16aa
=23	=23
8G	16ee
.	16dd
8E	16ee
.	16gg
8C#	16a
.	16gg
8E	16bn
.	16gg
8AA	16cc#
.	16gg
8C#	16a
.	16gg
=24	=24
16DD	8ff
16D	.
16Cn	8dd
16D	.
16GG	8b-
16D	.
16AA	8dd
16D	.
16BB-	8g
16D	.
16GG	8ff
16D	.
=25	=25
16CC	8ee
16C	.
16BB-	8cc
16C	.
16FF	8a
16C	.
16GG	8cc
16C	.
16AA	8f
16C	.
16FF	8ee-
16C	.
=26	=26
8BB-	16dd
.	16ff
8D	16ee-
.	16ff
8F	16dd
.	16ff
8D	16ee-
.	16ff
8B-	16dd
.	16ff
8F	16ee-
.	16ff
=27	=27
16d	16b-
16f	16dd
16e-	16cc
16f	16dd
16d	16b-
16f	16dd
16e-	16cc
16f	16dd
16d	16b-
16f	16dd
16e-	16cc
16f	16dd
=28	=28
16B-	16g
16d	16b-
16c	16a
16d	16b-
16B-	16g
16d	16b-
16c	16a
16d	16b-
16B-	16g
16d	16b-
16c	16a
16d	16b-
=29	=29
16G	8e
16B-	.
16A	8c
16B-	.
16G	8g
16B-	.
16A	8e
16B-	.
16G	8b-
16B-	.
16A	8g
16B-	.
=30	=30
8E	16cc
.	16dd
8C	16cc
.	16b-
8F	16a
.	16b-
8C	16a
.	16g
8A	16f
.	16g
8F	16f
.	16e-
=31	=31
16B-	8d
16c	.
16B-	16g
16A	16f
16G	16e
16A	16f
16G	16e
16F	16d
16E	16c
16F	16d
16E	16c
16D	16B-
=32	=32
8C	16A
.	16B-
16F	16A
16E	16G
16D	8F
16E	.
16D	16f
16C	16e
16BB-	8f
16C	.
16BB-	8A
16AA	.
=33	=33
16GG	8B-
16AA	.
16GG	8f
16FF	.
16C	8A
16BB-	.
16AA	8f
16BB-	.
8C	8G
8CC	8e
=34	=34
4FF	4A 4c 4f
4r	4r
4r	4r
==|!	==|!
*-	*-
!!!CDT: 1685/3//-1750/7/28
!!!OCY: Deutschland
!!!AGN: polyphony
!!!AST: baroque
!!!AMT: simple triple
!!!SCA: Bach-Werke-Verzeichnis
!!!YOR: Bach Gesellschaft
!!!AIN: cemb; clavi
!!!EEV: 1.0
!!!RDT: 1986 November
!!!YER: 1995 May 22
!!!YEN: Canada
!!!EFL: 8/15
!!!EED: David Huron
